src/renderer/shared/assets/images/misc/logo-title.svg

<svg xmlns="http://www.w3.org/2000/svg" width="232" height="85" fill="none" viewBox="0 0 232 85">
  <path
    fill="#fff"
    d="M98.0026 18.535v10.4693h-2.9294V14h3.4562l6.5966 9.947V14h2.952v15.0043h-3.141L98.0026 18.535Zm11.8564 4.8899c0-3.2591 2.445-5.7889 5.713-5.7889 3.267 0 5.712 2.5274 5.712 5.7889 0 3.2614-2.445 5.7888-5.712 5.7888-3.268 0-5.713-2.5495-5.713-5.7888Zm8.411 0c0-2.0693-1.242-3.1975-2.698-3.1975s-2.699 1.1282-2.699 3.1975c0 2.0692 1.245 3.2171 2.699 3.2171 1.453 0 2.698-1.1504 2.698-3.2171Zm10.083 5.5799h-3.203l-4.152-11.159h3.161l2.675 7.8581 2.699-7.8581h2.952l-4.132 11.159Zm11.335-1.38c-.738 1.0445-1.854 1.5889-3.394 1.5889-2.341 0-3.898-1.3573-3.898-3.4487s1.771-3.3428 5.058-3.3428c.631 0 1.18.0419 1.876.1256v-.6675c0-1.2539-.715-1.9855-1.938-1.9855-1.222 0-2.022.7316-2.129 1.9855h-2.634c.169-2.5693 2.045-4.2419 4.763-4.2419 2.952 0 4.679 1.6085 4.679 4.3453v7.0206h-2.383v-1.3795Zm-2.76-.4188c1.495 0 2.402-.8153 2.402-2.1111v-.7932c-.696-.1034-1.18-.1453-1.687-.1453-1.665 0-2.487.5222-2.487 1.5248 0 .941.673 1.5248 1.772 1.5248Zm-29.705 39.9288c-7.8462 0-12.7459-4.168-13.223-10.7032h6.676c.174 3.3969 2.386 5.5868 6.416 5.5868 3.339 0 5.722-1.4607 5.722-3.9536 0-1.9338-1.518-3.094-4.162-3.6113l-5.116-.9878c-4.7257-.9016-8.3682-3.4389-8.3682-8.5528 0-5.5006 4.9002-9.4568 11.6182-9.4568 6.719 0 12.095 4.0399 12.53 10.4865h-6.676c-.216-3.2245-2.472-5.4144-5.767-5.4144-3.295 0-5.029 1.8056-5.029 3.9536 0 2.1481 1.95 3.0078 4.204 3.4389l5.332 1.074c5.461 1.074 8.411 3.5669 8.411 8.1241 0 5.8874-4.768 10.016-12.573 10.016h.005Zm29.133-.0001c-2.731 0-5.074-1.1602-6.805-3.3945v11.26h-6.026V43.7526h5.549v3.3526c1.776-2.451 4.335-3.7812 7.282-3.7812 6.242 0 10.274 5.1582 10.274 11.9054 0 6.7471-4.032 11.9053-10.274 11.9053Zm-1.344-18.5244c-2.949 0-5.419 2.2786-5.419 6.6191 0 4.3404 2.472 6.5771 5.419 6.5771 2.947 0 5.419-2.1924 5.419-6.5771 0-4.3848-2.472-6.6191-5.419-6.6191Zm13.425 6.5328c0-6.8333 4.812-11.8191 11.489-11.8191 7.327 0 12.182 5.8874 11.098 13.3661h-16.431c.391 3.7394 2.212 5.8037 5.29 5.8037 2.644 0 4.423-1.2883 5.116-3.5669h5.983c-1.302 5.2001-5.332 8.166-10.967 8.166-6.937 0-11.576-4.7715-11.576-11.9498h-.002Zm6.243-2.2342h9.971c-.174-3.1802-1.995-5.2002-4.855-5.2002-2.859 0-4.596 1.8057-5.116 5.2002Zm19.617 13.7942V35.8422h6.025V53.465l8.453-9.713h6.937l-9.581 11.0038 10.709 11.9498h-7.672l-8.843-10.659v10.659h-6.026l-.002-.0025Zm39.655-.6003c-1.474.7316-2.863 1.0321-4.639 1.0321-4.768 0-7.76-2.7072-7.76-7.8655V48.8667h-4.681v-5.1139h4.681v-6.7915h5.983v6.7915h6.634v5.1139h-6.634v9.0257c0 2.6654 1.215 3.7394 3.382 3.7394 1.128 0 2.166-.2587 3.034-.7316v5.2026Zm9.509.6014h-6.025V43.7531h5.548v4.4266c1.689-2.9215 5.29-4.6853 9.017-4.6853v6.1905c-5.116-.3868-8.54.8178-8.54 5.8874v11.1319Z"/>

  <path fill="#fff"
        d="M31.76 53.2461a.2173.2173 0 0 0-.0363-.0114c-1.0497-.3476-1.2809-1.7311-.4013-2.4012l20.0664-15.2959a.2294.2294 0 0 1 .2312-.0273h.0046c.1496.0681.1813.2681.0612.3794L33.1203 52.9553c-.3673.3362-.8865.4498-1.358.2931l-.0023-.0023ZM7.5426 43.1639c.0158.0136.0317.0296.0476.0432.5282.4907 1.2673.6792 1.9656.5089l37.6683-9.2212c.3672-.0909.3944-.6043.0385-.7315l-.0136-.0045c-.0589-.0228-.1247-.0273-.1882-.0182L8.6875 39.4609c-1.7797.2658-2.4667 2.4763-1.1472 3.7053l.0023-.0023Zm44.6646-17.0315L39.67.8929a1.6074 1.6074 0 0 0-1.3557-.8905h-.0409c-1.2922-.0682-2.1242 1.3471-1.4441 2.449l14.8043 23.9922c.034.0568.0862.1.1451.1272l.0091.0046c.2766.1204.5532-.1704.4194-.443Zm-3.904-1.8174L28.2346 1.0656a1.8867 1.8867 0 0 0-1.6527-.6407c-.0159 0-.0318.0046-.0499.0068-1.5824.1863-2.2331 2.1378-1.0837 3.2441l22.1249 21.3139a.5012.5012 0 0 0 .195.1158l.0181.0046c.4738.1476.8434-.418.5192-.7951h-.0023Zm1.7525 10.5228h-.0068a.2621.2621 0 0 0-.2108 0L21.3539 46.8715c-1.4419.6088-1.3421 2.6875.1519 3.1577.0159.0046.034.0114.0499.0159a1.6744 1.6744 0 0 0 1.2922-.1226l27.2305-14.5871c.204-.1091.1882-.4067-.025-.4953l.0023-.0023Zm-9.9663-12.9559-25.1401-17.47c-.6938-.4816-1.5984-.5293-2.3442-.1295-.0159.009-.0318.016-.0477.025-1.5507.836-1.5665 3.06-.034 3.9279l26.6274 15.0801a.8564.8564 0 0 0 .331.1045c.0136 0 .025.0023.0386.0045.8705.0864 1.2877-1.0427.569-1.5425Zm14.165 5.3955L48.9335 2.3241a1.4052 1.4052 0 0 0-1.0814-1.0813.7301.7301 0 0 1-.0318-.0068c-1.0474-.2227-1.9474.7678-1.6278 1.7947l7.5881 24.3671a.2451.2451 0 0 0 .1292.1476h.0046c.1813.0886.3831-.0727.34-.268Zm-1.7321 8.8281L38.3755 54.0298c-.5487.6975-.229 1.7289.6166 1.9901.5373.1659 1.12-.0454 1.4283-.5179l12.4443-19.1512c.068-.1067.0294-.2476-.0839-.3021h-.0045c-.0885-.0432-.195-.0204-.254.0568Zm-2.2421 46.133a.4953.4953 0 0 1 .0544-.0181 2.1767 2.1767 0 0 0 1.4691-1.9015l3.2034-42.9707a.2248.2248 0 0 0-.1133-.2113h-.0046a.2189.2189 0 0 0-.3242.1545l-7.1301 42.5209c-.272 1.6266 1.2855 2.9578 2.8453 2.4285v-.0023Zm5.5703-44.0793 3.0243 35.6306c.1383 1.6334 2.1493 2.3263 3.2579 1.1222.0113-.0113.0227-.0249.034-.0363.399-.4362.5736-1.0314.4693-1.613l-6.2686-35.1648a.2642.2642 0 0 0-.1202-.1772h-.0045c-.1814-.1136-.4081.0295-.3922.2408v-.0023ZM55.651 3.4941c-.8502-.3112-1.7434.3453-1.6958 1.2517l1.1879 23.2631c.0046.0749.0477.1431.1157.1749h.0045c.1315.0659.2857-.0273.2925-.1749l.9476-23.2653c.0227-.5475-.3106-1.0496-.8252-1.2381-.0091-.0023-.0182-.0069-.0272-.0091V3.494Zm2.7953 35.8737s-.0045-.0046-.009-.0068c-.2789-.1977-.6462.0795-.5351.4021l7.4113 21.2547c.4783 1.3722 2.4802 1.1655 2.6661-.2771 0-.0136.0045-.0273.0045-.0409a1.3888 1.3888 0 0 0-.1133-.7474l-9.3111-20.446a.35.35 0 0 0-.1156-.1409l.0022.0023Zm-20.4177-8.6464-.0521-.0159a.6719.6719 0 0 0-.1633-.0341L2.6682 27.007c-1.562-.1635-2.8747 1.1904-2.6412 2.7466.0046.0295.0091.0568.0136.0863.1791 1.1655 1.1812 2.0242 2.3579 2.0378l35.3739.4157c.9205.0114 1.1336-1.288.2562-1.572Zm-8.5493-7.8377-24.528-9.1121c-1.2016-.4452-2.5347.1136-3.0766 1.2768a.4539.4539 0 0 1-.0226.0477c-.637 1.3767.127 2.9965 1.5892 3.3917l25.2671 6.8177a1.2625 1.2625 0 0 0 1.0792-.2022c.8184-.5998.6416-1.8674-.3083-2.2218v.0022Zm24.0474 13.7784L33.6326 81.5638c-.739 1.6675.5396 3.5281 2.3556 3.4327.0181 0 .0385 0 .0567-.0023a2.4423 2.4423 0 0 0 2.1809-1.6584l15.6886-46.5192a.2114.2114 0 0 0-.1021-.2522h-.0045a.2031.2031 0 0 0-.2834.0977h.0023ZM18.5313 60.5839 1.7478 73.3763c-1.7865 1.3608-1.5507 4.1097.4307 5.1661.0204.0113.0408.0227.0612.0318 1.1427.6088 2.546.4202 3.5005-.4567L21.2859 63.828c1.2877-1.1836.662-3.3349-1.0588-3.6348-.0181-.0023-.0362-.0068-.0521-.0091a2.1022 2.1022 0 0 0-1.6414.3976l-.0023.0022Zm13.9836.8769L18.087 79.7396c-1.3014 1.647-.3424 4.0892 1.7298 4.4095.0204.0023.0431.0068.0635.0091a2.7356 2.7356 0 0 0 2.7092-1.2131L35.265 63.4396c.6869-1.0587.0226-2.4717-1.2288-2.6149a1.6949 1.6949 0 0 0-1.5213.6339v.0022ZM57.6483 24.842c.4126-1.3562 4.0831-13.5466 5.1305-17.027.161-.5384-.0793-1.1154-.5758-1.3767a.1066.1066 0 0 0-.0227-.0113c-.6915-.3635-1.5371.0386-1.6913.8042l-3.5299 17.4336c-.0635.3113.2811.5452.5464.3703a.3536.3536 0 0 0 .1451-.1931h-.0023Zm10.3494 25.7143a.8644.8644 0 0 0-.1632-.5066l-6.5021-9.0235a.349.349 0 0 0-.1406-.1159l-.009-.0045c-.3129-.1386-.619.2044-.4444.4998l5.6519 9.5914c.4467.7588 1.6097.4407 1.6097-.4407h-.0023Z"/>
</svg>

<svg width="232" height="85" viewBox="0 0 232 85" fill="none" xmlns="http://www.w3.org/2000/svg">
<g clip-path="url(#clip0_2067_172781)">
<path d="M98.0026 18.535V29.0043H95.0732V14H98.5294L105.126 23.947V14H108.078V29.0043H104.937L98.0026 18.535Z" fill="white"/>
<path d="M109.859 23.4249C109.859 20.1658 112.304 17.636 115.572 17.636C118.839 17.636 121.284 20.1634 121.284 23.4249C121.284 26.6863 118.839 29.2137 115.572 29.2137C112.304 29.2137 109.859 26.6642 109.859 23.4249ZM118.27 23.4249C118.27 21.3556 117.028 20.2274 115.572 20.2274C114.116 20.2274 112.873 21.3556 112.873 23.4249C112.873 25.4941 114.118 26.642 115.572 26.642C117.025 26.642 118.27 25.4916 118.27 23.4249Z" fill="white"/>
<path d="M128.353 29.0048H125.15L120.998 17.8458H124.159L126.834 25.7039L129.533 17.8458H132.485L128.353 29.0048Z" fill="white"/>
<path d="M139.688 27.6248C138.95 28.6693 137.834 29.2137 136.294 29.2137C133.953 29.2137 132.396 27.8564 132.396 25.765C132.396 23.6736 134.167 22.4222 137.454 22.4222C138.085 22.4222 138.634 22.4641 139.33 22.5478V21.8803C139.33 20.6264 138.615 19.8948 137.392 19.8948C136.17 19.8948 135.37 20.6264 135.263 21.8803H132.629C132.798 19.311 134.674 17.6384 137.392 17.6384C140.344 17.6384 142.071 19.2469 142.071 21.9837V29.0043H139.688V27.6248ZM136.928 27.206C138.423 27.206 139.33 26.3907 139.33 25.0949V24.3017C138.634 24.1983 138.15 24.1564 137.643 24.1564C135.978 24.1564 135.156 24.6786 135.156 25.6812C135.156 26.6222 135.829 27.206 136.928 27.206Z" fill="white"/>
<path d="M107.223 67.1348C99.3768 67.1348 94.4771 62.9668 94 56.4316H100.676C100.85 59.8285 103.062 62.0184 107.092 62.0184C110.431 62.0184 112.814 60.5577 112.814 58.0648C112.814 56.131 111.296 54.9708 108.652 54.4535L103.536 53.4657C98.8103 52.5641 95.1678 50.0268 95.1678 44.9129C95.1678 39.4123 100.068 35.4561 106.786 35.4561C113.505 35.4561 118.881 39.496 119.316 45.9426H112.64C112.424 42.7181 110.168 40.5282 106.873 40.5282C103.578 40.5282 101.844 42.3338 101.844 44.4818C101.844 46.6299 103.794 47.4896 106.048 47.9207L111.38 48.9947C116.841 50.0687 119.791 52.5616 119.791 57.1188C119.791 63.0062 115.023 67.1348 107.218 67.1348H107.223Z" fill="white"/>
<path d="M136.356 67.1347C133.625 67.1347 131.282 65.9745 129.551 63.7402V75.0002H123.525V43.7526H129.074V47.1052C130.85 44.6542 133.409 43.324 136.356 43.324C142.598 43.324 146.63 48.4822 146.63 55.2294C146.63 61.9765 142.598 67.1347 136.356 67.1347ZM135.012 48.6103C132.063 48.6103 129.593 50.8889 129.593 55.2294C129.593 59.5698 132.065 61.8065 135.012 61.8065C137.959 61.8065 140.431 59.6141 140.431 55.2294C140.431 50.8446 137.959 48.6103 135.012 48.6103Z" fill="white"/>
<path d="M148.437 55.1431C148.437 48.3098 153.249 43.324 159.926 43.324C167.253 43.324 172.108 49.2114 171.024 56.6901H154.593C154.984 60.4295 156.805 62.4938 159.883 62.4938C162.527 62.4938 164.306 61.2055 164.999 58.9269H170.982C169.68 64.127 165.65 67.0929 160.015 67.0929C153.078 67.0929 148.439 62.3214 148.439 55.1431H148.437ZM154.68 52.9089H164.651C164.477 49.7287 162.656 47.7087 159.796 47.7087C156.937 47.7087 155.2 49.5144 154.68 52.9089Z" fill="white"/>
<path d="M174.297 66.7031V35.8422H180.322V53.465L188.775 43.752H195.712L186.131 54.7558L196.84 66.7056H189.168L180.325 56.0466V66.7056H174.299L174.297 66.7031Z" fill="white"/>
<path d="M213.952 66.1028C212.478 66.8344 211.089 67.1349 209.313 67.1349C204.545 67.1349 201.553 64.4277 201.553 59.2694V48.8667H196.872V43.7528H201.553V36.9613H207.536V43.7528H214.17V48.8667H207.536V57.8924C207.536 60.5578 208.751 61.6318 210.918 61.6318C212.046 61.6318 213.084 61.3731 213.952 60.9002V66.1003V66.1028Z" fill="white"/>
<path d="M223.461 66.7042H217.436V43.7531H222.984V48.1797C224.673 45.2582 228.274 43.4944 232.001 43.4944V49.6849C226.885 49.2981 223.461 50.5027 223.461 55.5723V66.7042Z" fill="white"/>
</g>
<path d="M31.76 53.2461C31.7487 53.2415 31.7351 53.237 31.7237 53.2347C30.674 52.8871 30.4428 51.5036 31.3224 50.8335L51.3888 35.5376C51.4545 35.4876 51.5452 35.4762 51.62 35.5103H51.6246C51.7742 35.5784 51.8059 35.7784 51.6858 35.8897L33.1203 52.9553C32.753 53.2915 32.2338 53.4051 31.7623 53.2484L31.76 53.2461ZM7.54256 43.1639C7.55843 43.1775 7.5743 43.1935 7.59017 43.2071C8.11841 43.6978 8.85749 43.8863 9.55577 43.716L47.2241 34.4948C47.5913 34.4039 47.6185 33.8905 47.2626 33.7633L47.249 33.7588C47.1901 33.736 47.1243 33.7315 47.0608 33.7406L8.68746 39.4609C6.90776 39.7267 6.22082 41.9372 7.54029 43.1662L7.54256 43.1639ZM52.2072 26.1324L39.67 0.892908C39.4115 0.37267 38.8924 0.0319037 38.3143 0.00237057H38.2734C36.9812 -0.0657828 36.1492 1.34954 36.8293 2.45135L51.6336 26.4436C51.6676 26.5004 51.7198 26.5436 51.7787 26.5708L51.7878 26.5754C52.0644 26.6958 52.341 26.405 52.2072 26.1324ZM48.3032 24.315L28.2346 1.06556C27.8243 0.590762 27.2053 0.349953 26.5819 0.424922C26.566 0.424922 26.5501 0.429465 26.532 0.431737C24.9496 0.618023 24.2989 2.56948 25.4483 3.67584L47.5732 24.9897C47.6276 25.0419 47.6956 25.0828 47.7682 25.1055L47.7863 25.1101C48.2601 25.2577 48.6297 24.6921 48.3055 24.315H48.3032ZM50.0557 34.8378H50.0489C49.9809 34.8083 49.9061 34.8083 49.8381 34.8378L21.3539 46.8715C19.912 47.4803 20.0118 49.559 21.5058 50.0292C21.5217 50.0338 21.5398 50.0406 21.5557 50.0451C21.9842 50.1792 22.4512 50.136 22.8479 49.9225L50.0784 35.3354C50.2824 35.2263 50.2666 34.9287 50.0534 34.8401L50.0557 34.8378ZM40.0894 21.8819L14.9493 4.41189C14.2555 3.93028 13.3509 3.88257 12.6051 4.2824C12.5892 4.29149 12.5733 4.29831 12.5574 4.30739C11.0067 5.14341 10.9909 7.36748 12.5234 8.2353L39.1508 23.3154C39.2528 23.3722 39.3662 23.4085 39.4818 23.4199C39.4954 23.4199 39.5068 23.4222 39.5204 23.4244C40.3909 23.5108 40.8081 22.3817 40.0894 21.8819ZM54.2544 27.2774L48.9335 2.32413C48.8179 1.78117 48.3939 1.35862 47.8521 1.24276C47.8407 1.24049 47.8294 1.23822 47.8203 1.23595C46.7729 1.01331 45.8729 2.00381 46.1925 3.03065L53.7806 27.3978C53.801 27.4636 53.8486 27.5159 53.9098 27.5454H53.9144C54.0957 27.634 54.2975 27.4727 54.2544 27.2774ZM52.5223 36.1055L38.3755 54.0298C37.8268 54.7273 38.1465 55.7587 38.9921 56.0199C39.5294 56.1858 40.1121 55.9745 40.4204 55.502L52.8647 36.3508C52.9327 36.2441 52.8941 36.1032 52.7808 36.0487H52.7763C52.6878 36.0055 52.5813 36.0283 52.5223 36.1055ZM50.2802 82.2385C50.2983 82.2317 50.3164 82.2249 50.3346 82.2204C51.1621 81.9387 51.7402 81.189 51.8037 80.3189L55.0071 37.3482C55.0139 37.2618 54.9686 37.18 54.8938 37.1369H54.8892C54.7555 37.0619 54.59 37.1414 54.565 37.2914L47.4349 79.8123C47.1629 81.4389 48.7204 82.7701 50.2802 82.2408V82.2385ZM55.8505 38.1592L58.8748 73.7898C59.0131 75.4232 61.0241 76.1161 62.1327 74.912C62.144 74.9007 62.1554 74.8871 62.1667 74.8757C62.5657 74.4395 62.7403 73.8443 62.636 73.2627L56.3674 38.0979C56.3538 38.0252 56.3107 37.9593 56.2472 37.9207H56.2427C56.0613 37.8071 55.8346 37.9502 55.8505 38.1615V38.1592ZM55.651 3.4941C54.8008 3.18286 53.9076 3.83941 53.9552 4.74585L55.1431 28.0089C55.1477 28.0838 55.1908 28.152 55.2588 28.1838H55.2633C55.3948 28.2497 55.549 28.1565 55.5558 28.0089L56.5034 4.74357C56.5261 4.19608 56.1928 3.69401 55.6782 3.50546C55.6691 3.50318 55.66 3.49864 55.651 3.49637V3.4941ZM58.4463 39.3678C58.4463 39.3678 58.4418 39.3632 58.4373 39.361C58.1584 39.1633 57.7911 39.4405 57.9022 39.7631L65.3135 61.0178C65.7918 62.39 67.7937 62.1833 67.9796 60.7407C67.9796 60.7271 67.9841 60.7134 67.9841 60.6998C68.0159 60.4454 67.9773 60.1864 67.8708 59.9524L58.5597 39.5064C58.5348 39.4496 58.4939 39.4019 58.4441 39.3655L58.4463 39.3678ZM38.0286 30.7214L37.9765 30.7055C37.9243 30.6873 37.8676 30.6759 37.8132 30.6714L2.66824 27.007C1.10619 26.8435 -0.206477 28.1974 0.0270368 29.7536C0.031571 29.7831 0.0361047 29.8104 0.040639 29.8399C0.219742 31.0054 1.22181 31.8641 2.39845 31.8777L37.7724 32.2934C38.6929 32.3048 38.906 31.0054 38.0286 30.7214ZM29.4793 22.8837L4.95123 13.7716C3.74966 13.3264 2.41659 13.8852 1.87475 15.0484C1.86795 15.0643 1.86114 15.0802 1.85207 15.0961C1.21501 16.4728 1.97903 18.0926 3.44133 18.4878L28.7084 25.3055C29.0803 25.4054 29.477 25.3327 29.7876 25.1033C30.606 24.5035 30.4292 23.2359 29.4793 22.8815V22.8837ZM53.5267 36.6621L33.6326 81.5638C32.8936 83.2313 34.1722 85.0919 35.9882 84.9965C36.0063 84.9965 36.0267 84.9965 36.0449 84.9942C37.0424 84.9397 37.9062 84.2831 38.2258 83.3358L53.9144 36.8166C53.9461 36.7189 53.903 36.6121 53.8123 36.5644H53.8078C53.7012 36.5076 53.572 36.553 53.5244 36.6621H53.5267ZM18.5313 60.5839L1.74779 73.3763C-0.0387074 74.7371 0.197073 77.486 2.17854 78.5424C2.19894 78.5537 2.21935 78.5651 2.23975 78.5742C3.38239 79.183 4.78573 78.9944 5.74019 78.1175L21.2859 63.828C22.5736 62.6444 21.9479 60.4931 20.2271 60.1932C20.209 60.1909 20.1909 60.1864 20.175 60.1841C19.5969 60.0819 19.0006 60.225 18.5336 60.5817L18.5313 60.5839ZM32.5149 61.4608L18.087 79.7396C16.7856 81.3866 17.7446 83.8288 19.8168 84.1491C19.8372 84.1514 19.8599 84.1559 19.8803 84.1582C20.9435 84.3218 22.0023 83.847 22.5895 82.9451L35.265 63.4396C35.9519 62.3809 35.2876 60.9679 34.0362 60.8247C33.4535 60.7589 32.88 60.9974 32.5149 61.4586V61.4608ZM57.6483 24.842C58.0609 23.4858 61.7314 11.2954 62.7788 7.81502C62.9398 7.27661 62.6995 6.69958 62.203 6.43832C62.1962 6.43378 62.1871 6.42924 62.1803 6.42696C61.4888 6.06348 60.6432 6.46558 60.489 7.23117L56.9591 24.6648C56.8956 24.9761 57.2402 25.21 57.5055 25.0351C57.5758 24.9897 57.6256 24.9215 57.6506 24.842H57.6483ZM67.9977 50.5563C67.9977 50.3745 67.9411 50.1973 67.8345 50.0497L61.3324 41.0262C61.2961 40.9762 61.2485 40.9353 61.1918 40.9103L61.1828 40.9058C60.8699 40.7672 60.5638 41.1102 60.7384 41.4056L66.3903 50.997C66.837 51.7558 68 51.4377 68 50.5563H67.9977Z" fill="white"/>
<defs>
<clipPath id="clip0_2067_172781">
<rect width="138" height="61" fill="white" transform="translate(94 14)"/>
</clipPath>
</defs>
</svg>
